!!!OTL: 170. Die nasse Bruecke.
!!!ARE: Europa, Mitteleuropa, Deutschland, Sachsen
!!!SCT: K2170
!!!TXL: @@DE
!!!YEM: Copyright 1995, estate of Helmut Schaffrath.
**kern	**text
*clefG2	*
*M2/4	*
*k[b-]	*
*F:	*
{8c	Es
=1	=1
8f	reg-
8g	-net
8a	auf
8b-	der
=2	=2
4cc	Brü-
8a}	-cke,
{8a	und
=3	=3
4b-	es
4cc	ward
=4	=4
4a	naß.
8r}	.
{8c	Jch
=5	=5
8f	hab'
8g	et-
8a	-was
8b-	ver-
=6	=6
4cc	-geſ-
8a}	-ſen,
{8a	und
=7	=7
4b-	weiß
4cc	nicht
=8	=8
4a	was.
8r}	.
{8cc	Ach,
=9	=9
8b-	ſchön-
8b-	-ſter
8g	Schatʒ,
8g	komm
=10	=10
8a	'rein
8a	ʒu
8a}	mir,
{8cc	es
=11	=11
8b-/	ſind
8b-/	kein'
8g	ſchön'-
8g	-re
=12	=12
8a	Leut'
8a	als
4a}	wir.
=13	=13
{4b-/	Ei,
4g	ja
=14	=14
4a	frei-
4f}	-lich!
=15	=15
{8b-	Wer
8b-	ich
8g	bin,
8g	der
=16	=16
4a	bleib
4f}	ich,
=17	=17
{8f	bleib'
8g	ich
8a	wer
8b-	ich
=18	=18
4cc	bin:
8r}	.
{8dd	Ad-
=19	=19
8cc	-je,
8b-	ad-
8a	-je!
8g	mein
=20	=20
4f	Kind!
8r}	.
==	==
!!!AGN: Kinder - Lied, Reigen, Tanz - Spiel, Brautwerbung
!!!ONB: ESAC (Essen Associative Code) Database: KINDER
!!!AMT: simple duple
!!!AIN: vox
!!!EED: Helmut Schaffrath
!!!EEV: 1.0
!!Aus Sachsen und Berlin 1872.
!!Text aus Chemniֳ und Waldkirchen im Vogtland: Dunger 314.
!!!GTL: Zweites Buch. Kinderspiel: 2. Reigen und Tanzspiele. / D. Ringelreigen mit Wahl (Brautwerbung).
!!@@COMMENT:"Ausführung: Ein Kind ſteht in der Mitte des Kreiſes, der ſingend ſich bewegt. Bei der Stelle: "Schönſter Schatʒ" erfaßt dieſes Kind ein ʒweites und tanʒt 
!!mit ihm herum. Das ʒuletʒt eingetretene Kind bleibt dann im Kreiſe ſtehen und das Spiel wiederholt ſich beliebige mal.
!!* Dieſer Reim war ſchon ʒu Anfang des 16. Jahrhunderts in Süddeutſchland gekannt, das beʒeugt folgendes Fragment:[171.]"
!!@@END:
!!!URL-scan: https://archive.org/details/DeutschesKinderliedUndKinderspiel/page/469/mode/1up
!!!ENC: Anna Maria Matuszewska
!!!EEV: 2024/03/09
*-	*-
